X:1
T:There’s a Sweet Land of Rest
T:There’s a Sweet Land of Rest
T:Robert Lowry
T:William Stevenson, 1875
T:Public Domain Courtesy of the Cyber Hymnal™
T:Public Domain Courtesy of the Cyber Hymnal™
C:Robert Lowry
Z:Public Domain
Z:Courtesy of the Cyber Hymnal™
%%score ( 1 2 ) ( 3 4 )
L:1/8
Q:1/4=97
M:4/4
K:Ab
V:1 treble 
V:2 treble 
V:3 bass 
V:4 bass 
V:1
 [CE]>[CE] | [CA]2 [CA]>[CA] [CA]2 [Ec]>[EB] | (A>B) [FA]>[DF] [CE]2 [CE]>[CE] | %3
w: 1.~There’s a|sweet land of rest, Where the|songs * of the blest Ev- er|
w: 2.~In the|bright land of song Stands the|pure, * hap- py throng Near the|
w: 3.~There are|crowns to be giv’n To the|ran- * somed in Heav’n, On- ly|
 [CA]2 [Ec]>[Ec] ([Fd]>[Ec]) ([EB]>[=DA]) | [EB]6 [CA]>[DB] | [Ec]2 [Ec]>[DB] [CA]2 [EA]>[EA] | %6
w: float on the balm- * y *|air; If to|Je- sus we yield, And our|
w: throne in their robes * so *|fair; If we|fol- low the Lord In the|
w: vic- tors the crowns * may *|wear; If we|bat- tle with sin, And the|
 (B>A) [EG]>[DF] [CE]2 E>E | [DF]>[EG] [EA]2 [EA]2 G2 | [CA]6 ||"^Refrain" [Ec]>[Ed] | %10
w: par- * don is sealed, We shall|join in that song up|there.||
w: way * of His Word, We shall|wear a bright robe up|there.|Hal- le-|
w: vic- * tory we win, We shall|wear a bright crown up|there.||
 [Ee]2 [Ec]>[DB] [CA]2 [Ec]>[EB] | (A>B) ([FA]>[DF]) [CA]2 [Ec]>[Ed] | %12
w: ||
w: lu- jah! we sing to the|Lord * our * king, Hal- le-|
w: ||
 [Ee]2 [Ec]>[EB] [EA]2 (B>c) | [EB]6 [Ec]>[Ed] | [Ee]2 [Ac]>[EB] [EA]2 [EA]>[EA] | %15
w: |||
w: lu- jah! the song we’ll *|share; Hal- le-|lu- jah a- gain, wsith a|
w: |||
 (B>A) ([EG]>[DF]) [CE]2 E>E | [DF]2 [EA]>[FB] [EA]2 G2 | [CA]6 |] %18
w: |||
w: loud * a- * men, For the|rest that re- mains up|there!|
w: |||
V:2
 x2 | x8 | F2 x6 | x8 | x8 | x8 | F2 x5/2 E3/2 E/ x3/2 | x6 (ED) | x6 || x2 | x8 | F2 x6 | x6 E2 | %13
 x8 | x8 | F2 x5/2 E3/2 E/ x3/2 | x6 (ED) | x6 |] %18
V:3
 [A,,A,]>[A,,A,] | [A,,E,]2 [A,,E,]>[A,,E,] [A,,E,]2 [A,,A,]>[C,A,] | %2
 [D,A,]2 [D,A,]>[D,A,] [A,,A,]2 [A,,A,]>[A,,A,] | [A,,A,]2 A,>A, A,2 B,2 | %4
 [E,G,]6 [A,,A,]>[A,,A,] | [A,,A,]2 [A,,A,]>[A,,E,] [A,,E,]2 [C,A,]>[C,A,] | %6
 [D,A,]2 [D,A,]>[D,A,] [A,,A,]2 [C,A,]>[C,A,] | [D,A,]>[D,B,] [C,A,]2 [E,C]2 [E,B,]2 | [A,,A,]6 || %9
 A,>[A,B,] | [A,C]2 A,>A, A,2 [A,,A,]>[C,A,] | [D,A,]2 [D,A,]2 [A,,A,]2 A,>[A,B,] | %12
 [A,C]2 [A,,A,]>[B,,G,] [C,A,]2 ([B,,G,]>[A,,A,]) | [E,G,]6 A,>[A,B,] | %14
 [A,C]2 [A,E]>[A,D] [A,C]2 [A,C]>[A,C] | [D,D]2 [D,A,]2 [A,,A,]2 [C,A,]>[C,A,] | %16
 [D,A,]2 [C,A,]>[D,D] [E,C]2 [E,B,]2 | [A,,A,]6 |] %18
V:4
 x2 | x8 | x8 | x2 A,>A, A,2 (G,>F,) | x8 | x8 | x8 | x8 | x6 || A,3/2 x/ | x2 A,>A, A,2 x2 | %11
 x6 A,3/2 x/ | x8 | x6 A,3/2 x/ | x8 | x8 | x8 | x6 |] %18

